packages/symbols/svgs/duotone/trash-can-duotone.svg

<svg width="24" height="24" viewBox="0 0 24 24" fill="none" xmlns="http://www.w3.org/2000/svg">
<path fill-rule="evenodd" clip-rule="evenodd" d="M4 8C4.55228 8 5 8.44772 5 9V21C5 21.2652 5.10536 21.5196 5.29289 21.7071C5.48043 21.8946 5.73478 22 6 22H18C18.2652 22 18.5196 21.8946 18.7071 21.7071C18.8946 21.5196 19 21.2652 19 21V9C19 8.44772 19.4477 8 20 8C20.5523 8 21 8.44772 21 9V21C21 21.7957 20.6839 22.5587 20.1213 23.1213C19.5587 23.6839 18.7957 24 18 24H6C5.20435 24 4.44129 23.6839 3.87868 23.1213C3.31607 22.5587 3 21.7956 3 21V9C3 8.44772 3.44772 8 4 8Z" fill="black"/>
<path opacity="0.5" fill-rule="evenodd" clip-rule="evenodd" d="M12 11C12.5523 11 13 11.4477 13 12V18C13 18.5523 12.5523 19 12 19C11.4477 19 11 18.5523 11 18V12C11 11.4477 11.4477 11 12 11Z" fill="black"/>
<path opacity="0.5" fill-rule="evenodd" clip-rule="evenodd" d="M8 11C8.55228 11 9 11.4477 9 12V18C9 18.5523 8.55228 19 8 19C7.44772 19 7 18.5523 7 18V12C7 11.4477 7.44772 11 8 11Z" fill="black"/>
<path opacity="0.5" fill-rule="evenodd" clip-rule="evenodd" d="M16 11C16.5523 11 17 11.4477 17 12V18C17 18.5523 16.5523 19 16 19C15.4477 19 15 18.5523 15 18V12C15 11.4477 15.4477 11 16 11Z" fill="black"/>
<path fill-rule="evenodd" clip-rule="evenodd" d="M8 0C7.44772 0 7 0.447715 7 1V4H1C0.447715 4 0 4.44772 0 5C0 5.55228 0.447715 6 1 6H8H16H23C23.5523 6 24 5.55228 24 5C24 4.44772 23.5523 4 23 4H17V1C17 0.447715 16.5523 0 16 0L8 0ZM15 4V2H9V4H15Z" fill="black"/>
</svg>

<svg width="24" height="24" viewBox="0 0 24 24" xmlns="http://www.w3.org/2000/svg"><path fill-rule="evenodd" clip-rule="evenodd" d="M4 8a1 1 0 0 1 1 1v12a1 1 0 0 0 1 1h12a1 1 0 0 0 1-1V9a1 1 0 1 1 2 0v12a3 3 0 0 1-3 3H6a3 3 0 0 1-3-3V9a1 1 0 0 1 1-1Z"/><path opacity=".5" fill-rule="evenodd" clip-rule="evenodd" d="M12 11a1 1 0 0 1 1 1v6a1 1 0 1 1-2 0v-6a1 1 0 0 1 1-1Zm-4 0a1 1 0 0 1 1 1v6a1 1 0 1 1-2 0v-6a1 1 0 0 1 1-1Zm8 0a1 1 0 0 1 1 1v6a1 1 0 1 1-2 0v-6a1 1 0 0 1 1-1Z"/><path fill-rule="evenodd" clip-rule="evenodd" d="M8 0a1 1 0 0 0-1 1v3H1a1 1 0 0 0 0 2h22a1 1 0 1 0 0-2h-6V1a1 1 0 0 0-1-1H8Zm7 4V2H9v2h6Z"/></svg>
